symbols/web/monitor_weight/materialsymbolsoutlined/monitor_weight_wght100_48px.svg

<svg xmlns="http://www.w3.org/2000/svg" height="48" width="48"><path d="M24.05 22.85q2.05 0 3.475-1.425Q28.95 20 28.95 17.9q0-2.1-1.425-3.55Q26.1 12.9 24 12.9q-2.1 0-3.525 1.45-1.425 1.45-1.425 3.55 0 2.1 1.425 3.525Q21.9 22.85 24.05 22.85Zm-3.1-3.95q-.4 0-.7-.3-.3-.3-.3-.7 0-.4.3-.7.3-.3.7-.3.4 0 .7.3.3.3.3.7 0 .4-.3.7-.3.3-.7.3Zm3.05 0q-.4 0-.7-.3-.3-.3-.3-.7 0-.4.3-.7.3-.3.7-.3.4 0 .7.3.3.3.3.7 0 .4-.3.7-.3.3-.7.3Zm3.05 0q-.4 0-.7-.3-.3-.3-.3-.7 0-.4.3-.7.3-.3.7-.3.4 0 .7.3.3.3.3.7 0 .4-.3.7-.3.3-.7.3ZM11.3 39.4q-1.15 0-1.925-.775Q8.6 37.85 8.6 36.7V11.3q0-1.15.775-1.925Q10.15 8.6 11.3 8.6h25.4q1.15 0 1.925.775.775.775.775 1.925v25.4q0 1.15-.775 1.925-.775.775-1.925.775Zm0-1.1h25.4q.6 0 1.1-.5.5-.5.5-1.1V11.3q0-.6-.5-1.1-.5-.5-1.1-.5H11.3q-.6 0-1.1.5-.5.5-.5 1.1v25.4q0 .6.5 1.1.5.5 1.1.5ZM9.7 9.7V38.3 9.7Z"/></svg>

<svg xmlns="http://www.w3.org/2000/svg" height="48" width="48"><path d="M11.3 39.4Q10.15 39.4 9.375 38.65Q8.6 37.9 8.6 36.75V11.35Q8.6 10.2 9.375 9.4Q10.15 8.6 11.3 8.6H36.7Q37.85 8.6 38.625 9.375Q39.4 10.15 39.4 11.3V36.7Q39.4 37.85 38.625 38.625Q37.85 39.4 36.7 39.4ZM11.3 38.3H36.7Q37.3 38.3 37.8 37.8Q38.3 37.3 38.3 36.7V11.3Q38.3 10.7 37.8 10.2Q37.3 9.7 36.7 9.7H11.3Q10.7 9.7 10.2 10.2Q9.7 10.7 9.7 11.3V36.7Q9.7 37.3 10.2 37.8Q10.7 38.3 11.3 38.3ZM24.05 22.85Q26.1 22.85 27.525 21.425Q28.95 20 28.95 17.9Q28.95 15.8 27.525 14.35Q26.1 12.9 24 12.9Q21.9 12.9 20.475 14.35Q19.05 15.8 19.05 17.9Q19.05 20 20.475 21.425Q21.9 22.85 24.05 22.85ZM20.95 18.9Q20.55 18.9 20.25 18.6Q19.95 18.3 19.95 17.9Q19.95 17.5 20.25 17.2Q20.55 16.9 20.95 16.9Q21.35 16.9 21.65 17.2Q21.95 17.5 21.95 17.9Q21.95 18.3 21.65 18.6Q21.35 18.9 20.95 18.9ZM24 18.9Q23.6 18.9 23.3 18.6Q23 18.3 23 17.9Q23 17.5 23.3 17.2Q23.6 16.9 24 16.9Q24.4 16.9 24.7 17.2Q25 17.5 25 17.9Q25 18.3 24.7 18.6Q24.4 18.9 24 18.9ZM27.05 18.9Q26.65 18.9 26.35 18.6Q26.05 18.3 26.05 17.9Q26.05 17.5 26.35 17.2Q26.65 16.9 27.05 16.9Q27.45 16.9 27.75 17.2Q28.05 17.5 28.05 17.9Q28.05 18.3 27.75 18.6Q27.45 18.9 27.05 18.9ZM9.7 38.3Q9.7 38.3 9.7 37.8Q9.7 37.3 9.7 36.7V11.3Q9.7 10.7 9.7 10.2Q9.7 9.7 9.7 9.7Q9.7 9.7 9.7 10.2Q9.7 10.7 9.7 11.3V36.7Q9.7 37.3 9.7 37.8Q9.7 38.3 9.7 38.3Z"/></svg>
